svg/dynatrace.svg

<?xml version="1.0" encoding="UTF-8"?>
<svg xmlns="http://www.w3.org/2000/svg" xmlns:xlink="http://www.w3.org/1999/xlink" width="31.030001" height="32" viewBox="0 0 31.030001 32">
<path fill-rule="nonzero" fill="rgb(22.745098%, 54.11765%, 79.215688%)" fill-opacity="1" d="M 10.472656 2.628906 C 9.941406 5.441406 9.554688 8.273438 9.304688 11.125 C 8.835938 16.773438 9.125 20.5625 9.125 20.5625 L 1.167969 28.117188 L 0.25 19.105469 L 0 11.976562 C 0 11.886719 0.046875 11.796875 0.046875 11.707031 C 0.046875 11.597656 0.179688 10.542969 1.210938 9.554688 C 2.332031 8.480469 10.605469 2 10.472656 2.628906 "/>
<path fill-rule="nonzero" fill="rgb(14.901961%, 14.117648%, 14.117648%)" fill-opacity="1" d="M 10.472656 2.628906 C 9.941406 5.441406 9.554688 8.273438 9.304688 11.125 C 9.304688 11.125 0.496094 10.070312 0 12.203125 C 0 12.089844 0.160156 10.789062 1.191406 9.804688 C 2.3125 8.726562 10.605469 2 10.472656 2.628906 "/>
<path fill-rule="nonzero" fill="rgb(78.431374%, 83.92157%, 26.274511%)" fill-opacity="1" d="M 0 11.6875 L 0 12.179688 C 0.0898438 11.796875 0.25 11.527344 0.5625 11.101562 C 1.210938 10.273438 2.265625 10.050781 2.691406 10.003906 C 4.84375 9.714844 8.027344 9.375 11.234375 9.289062 C 16.90625 9.109375 20.648438 9.578125 20.648438 9.578125 L 28.605469 2.023438 L 19.683594 0.679688 L 12.285156 0.0078125 C 12.175781 0.0078125 11.078125 -0.128906 10.046875 0.859375 L 0.945312 9.511719 C -0.0859375 10.496094 0 11.597656 0 11.6875 "/>
<path fill-rule="nonzero" fill="rgb(38.82353%, 18.82353%, 54.901963%)" fill-opacity="1" d="M 28.316406 21.347656 L 19.773438 22.109375 C 14.101562 22.289062 10.335938 21.820312 10.335938 21.820312 L 2.378906 29.394531 L 11.34375 30.761719 L 18.40625 31.367188 C 18.519531 31.367188 18.699219 31.277344 18.8125 31.277344 C 18.921875 31.277344 20.019531 31.078125 21.050781 30.089844 C 22.171875 29.015625 28.945312 21.28125 28.316406 21.347656 "/>
<path fill-rule="nonzero" fill="rgb(14.901961%, 14.117648%, 14.117648%)" fill-opacity="1" d="M 28.316406 21.347656 L 19.773438 22.109375 C 19.773438 22.109375 20.378906 30.964844 18.25 31.347656 C 18.363281 31.347656 19.820312 31.277344 20.851562 30.292969 C 21.972656 29.214844 28.945312 21.28125 28.316406 21.347656 "/>
<path fill-rule="nonzero" fill="rgb(50.588238%, 72.549021%, 31.37255%)" fill-opacity="1" d="M 18.722656 31.390625 C 18.5625 31.390625 18.40625 31.367188 18.226562 31.367188 C 18.632812 31.300781 18.898438 31.167969 19.324219 30.851562 C 20.179688 30.246094 20.445312 29.195312 20.535156 28.769531 L 21.679688 20.273438 C 22.128906 14.621094 21.859375 10.855469 21.859375 10.855469 L 29.816406 3.277344 L 30.738281 12.269531 L 31.027344 19.667969 C 31.027344 19.777344 31.117188 20.878906 30.085938 21.863281 L 21.007812 30.539062 C 19.929688 31.527344 18.832031 31.390625 18.722656 31.390625 "/>
</svg>

<svg role="img" viewBox="0 0 31.03 32" xmlns="http://www.w3.org/2000/svg"><path d="M10.473 2.629a86 86 0 0 0-1.168 8.496c-.47 5.648-.18 9.438-.18 9.438l-7.957 7.554-.918-9.012L0 11.977c0-.09.047-.18.047-.27 0-.11.133-1.164 1.164-2.152C2.332 8.48 10.605 2 10.473 2.629" fill="rgb(22.745098%, 54.11765%, 79.215688%)"/><path d="M10.473 2.629a86 86 0 0 0-1.168 8.496S.496 10.07 0 12.203c0-.113.16-1.414 1.191-2.398C2.313 8.727 10.605 2 10.473 2.629" fill="rgb(14.901961%, 14.117648%, 14.117648%)"/><path d="M0 11.688v.492c.09-.383.25-.653.563-1.078.648-.829 1.703-1.051 2.128-1.098 2.153-.29 5.336-.629 8.543-.715 5.672-.18 9.414.29 9.414.29l7.957-7.556L19.684.68 12.285.008c-.11 0-1.207-.137-2.238.851L.945 9.512C-.085 10.496 0 11.598 0 11.687" fill="rgb(78.431374%, 83.92157%, 26.274511%)"/><path d="m28.316 21.348-8.543.761c-5.671.18-9.437-.289-9.437-.289l-7.957 7.575 8.965 1.367 7.062.605c.114 0 .293-.09.407-.09.109 0 1.207-.199 2.238-1.187 1.12-1.074 7.894-8.809 7.265-8.742" fill="rgb(38.82353%, 18.82353%, 54.901963%)"/><path d="m28.316 21.348-8.543.761s.606 8.856-1.523 9.239c.113 0 1.57-.07 2.602-1.055 1.12-1.078 8.093-9.012 7.464-8.945" fill="rgb(14.901961%, 14.117648%, 14.117648%)"/><path d="M18.723 31.39c-.16 0-.317-.023-.496-.023.406-.066.671-.199 1.097-.515.856-.606 1.121-1.657 1.211-2.082l1.145-8.497c.449-5.652.18-9.418.18-9.418l7.956-7.578.922 8.993.29 7.398c0 .11.09 1.21-.942 2.195l-9.078 8.676c-1.078.988-2.176.852-2.285.852" fill="rgb(50.588238%, 72.549021%, 31.37255%)"/></svg>
